X: 1672
T: An Echo From Leinster
M:2/4
L:1/16
B:O'Neill's 1672
N:"collected by Fielding"
K:G
a-g \
| f2fe fgec | dedcd2A2 | (3cBA Bc (3edc df | edcBA2a-g |
| fgfefgaf | (3def (3edc d2Ac | Bdgfedce | dcded2 :|
|: A2 \
| FAdefdAG | FA (3def gecA | fd (3cdcB2gf | (3efe (3dcB AGFE |
| FAde fdAF | GBefgecA | (3faf df gece | dcded2 :|


